**kern	**kern	**dynam
*part1	*part1	*part1
*staff2	*staff1	*
*I"Piano	*	*
*clefF4	*clefG2	*
*k[b-e-a-d-]	*k[b-e-a-d-]	*
=1	=1	=1
!	!LO:TX:a:i:t=a tempo	!
2.ryy	(8EE-L<	.
.	8E-<	.
.	8c	<
.	8e-	.
.	8a-	.
.	8ccJ)	.
=	=	=
([4E- 4c	((4e- 4cc 4ee-	[
4E-]) 4B- 4d-	4e-)) 4b- 4dd-	.
4E- 4A- 4c	4e- 4a- 4cc	.
=	=	=
4DDn	((2g [2cc 2gg	f
2Dn 2A- 2c	.	.
.	4f)) 4cc] 4ff	.
=	=	=
4BBB- 4BB-	(((4cc 4aa- 4ccc	.
2F 2A- 2dn	4b-))) 4gg 4bb-	.
.	4a- 4ff 4aa-	.
=	=	=
4EE-	2a- 2cc 2aa-	.
2E- 2e-	.	.
.	4f 4a-	.
=	=	=
4EE-	2g 2dd- 2ff	.
2E- 2e-	.	.
.	([4f [4a- 4dd-	.
=	=	=
(8AA-L	4f]) 4a-] 4cc	.
8E-	.	.
8cJ)	(8e-L	>
8r	8f	.
!	!LO:TX:b:i:t=rall.	!
4r	8a-	.
.	[8ccJ	.
=	=	=
*-	*-	*-
!!!system-decoration: {(s1,s2)}
!!!RDF**kern: < = below
